svgs/sharp-solid/cubes-stacked.svg

<svg xmlns="http://www.w3.org/2000/svg" viewBox="0 0 448 512"><!--! Font Awesome Pro 6.6.0 by @fontawesome - https://fontawesome.com License - https://fontawesome.com/license (Commercial License) Copyright 2024 Fonticons, Inc. --><path d="M192 32l0 128 128 0 0-128L192 32zM165.8 159L55 223l64 110.9 110.9-64L165.8 159zM256 192l0 128 128 0 0-128-128 0zM448 480l0-128-128 0 0 128 128 0zM160 352l0 128 128 0 0-128-128 0zm-32 0L0 352 0 480l128 0 0-128z"/></svg>

<svg xmlns="http://www.w3.org/2000/svg" viewBox="0 0 448 512"><!--! Font Awesome Pro 6.4.2 by @fontawesome - https://fontawesome.com License - https://fontawesome.com/license (Commercial License) Copyright 2023 Fonticons, Inc. --><path d="M192 32V160H320V32H192zM165.8 159L55 223l64 110.9 110.9-64L165.8 159zM256 192V320H384V192H256zM448 480V352H320V480H448zM160 352V480H288V352H160zm-32 0H0V480H128V352z"/></svg>
